build/images/page-5/phone-round.svg

<svg width="38" height="38" viewBox="0 0 38 38" fill="none" xmlns="http://www.w3.org/2000/svg">
<circle cx="19" cy="19" r="18" stroke="white" stroke-width="2"/>
<path fill-rule="evenodd" clip-rule="evenodd" d="M21.6223 22.2352C22.2381 22.4661 22.9309 22.6201 23.6238 22.697C24.7785 22.851 25.6252 23.8517 25.6252 25.0064V27.3158C25.6252 27.9317 25.3173 28.4705 24.9324 28.9324C24.5475 29.3943 23.9317 29.6252 23.3158 29.6252H23.0849C20.6215 29.3943 18.1582 28.5475 16.0797 27.1619C14.1552 25.9302 12.4616 24.2366 11.23 22.3121C9.9213 20.2337 8.99754 17.7703 8.7666 15.3069C8.7666 14.6911 8.92056 14.0753 9.30546 13.6134C9.69036 13.1515 10.2292 12.8436 10.8451 12.7666H11.076H13.3854C14.5401 12.7666 15.5409 13.6134 15.6948 14.7681C15.7718 15.4609 15.9258 16.1537 16.1567 16.7696C16.4646 17.6163 16.2337 18.6171 15.6178 19.2329L15.079 19.7718C16.0027 21.2344 17.2344 22.3891 18.6201 23.3129L19.1589 22.774C19.8517 22.1582 20.7755 21.9272 21.6223 22.2352ZM24.0864 27.3166V25.0071C24.0864 24.6222 23.7784 24.3143 23.4705 24.2373C22.7007 24.0834 21.9309 23.9294 21.1611 23.6215C20.8532 23.4675 20.5453 23.5445 20.3143 23.7755L19.3136 24.7762C19.0826 25.0841 18.6977 25.0841 18.3898 24.9302C16.3114 23.7755 14.6178 22.0819 13.4631 20.0034C13.3091 19.6955 13.3861 19.3106 13.6171 19.0797L14.6178 18.1559C14.7718 17.925 14.8487 17.6171 14.7718 17.3091C14.4638 16.6163 14.2329 15.7695 14.1559 14.9997C14.0789 14.6148 13.771 14.3069 13.3861 14.3069H11.0767C10.8458 14.3069 10.6148 14.4609 10.4609 14.6148C10.3839 14.7688 10.3069 14.9228 10.3069 15.1537C10.5379 17.3861 11.3077 19.5416 12.5393 21.4661C13.694 23.2366 15.1567 24.7762 16.9272 25.8539C18.8517 27.0856 21.0071 27.8554 23.2396 28.0864C23.5475 28.0864 23.7015 28.0094 23.8554 27.8554C24.0094 27.7015 24.0864 27.5475 24.0864 27.3166Z" fill="black"/>
<mask id="mask0" mask-type="alpha" maskUnits="userSpaceOnUse" x="8" y="12" width="18" height="18">
<path fill-rule="evenodd" clip-rule="evenodd" d="M21.6223 22.2352C22.2381 22.4661 22.9309 22.6201 23.6238 22.697C24.7785 22.851 25.6252 23.8517 25.6252 25.0064V27.3158C25.6252 27.9317 25.3173 28.4705 24.9324 28.9324C24.5475 29.3943 23.9317 29.6252 23.3158 29.6252H23.0849C20.6215 29.3943 18.1582 28.5475 16.0797 27.1619C14.1552 25.9302 12.4616 24.2366 11.23 22.3121C9.9213 20.2337 8.99754 17.7703 8.7666 15.3069C8.7666 14.6911 8.92056 14.0753 9.30546 13.6134C9.69036 13.1515 10.2292 12.8436 10.8451 12.7666H11.076H13.3854C14.5401 12.7666 15.5409 13.6134 15.6948 14.7681C15.7718 15.4609 15.9258 16.1537 16.1567 16.7696C16.4646 17.6163 16.2337 18.6171 15.6178 19.2329L15.079 19.7718C16.0027 21.2344 17.2344 22.3891 18.6201 23.3129L19.1589 22.774C19.8517 22.1582 20.7755 21.9272 21.6223 22.2352ZM24.0864 27.3166V25.0071C24.0864 24.6222 23.7784 24.3143 23.4705 24.2373C22.7007 24.0834 21.9309 23.9294 21.1611 23.6215C20.8532 23.4675 20.5453 23.5445 20.3143 23.7755L19.3136 24.7762C19.0826 25.0841 18.6977 25.0841 18.3898 24.9302C16.3114 23.7755 14.6178 22.0819 13.4631 20.0034C13.3091 19.6955 13.3861 19.3106 13.6171 19.0797L14.6178 18.1559C14.7718 17.925 14.8487 17.6171 14.7718 17.3091C14.4638 16.6163 14.2329 15.7695 14.1559 14.9997C14.0789 14.6148 13.771 14.3069 13.3861 14.3069H11.0767C10.8458 14.3069 10.6148 14.4609 10.4609 14.6148C10.3839 14.7688 10.3069 14.9228 10.3069 15.1537C10.5379 17.3861 11.3077 19.5416 12.5393 21.4661C13.694 23.2366 15.1567 24.7762 16.9272 25.8539C18.8517 27.0856 21.0071 27.8554 23.2396 28.0864C23.5475 28.0864 23.7015 28.0094 23.8554 27.8554C24.0094 27.7015 24.0864 27.5475 24.0864 27.3166Z" fill="white"/>
</mask>
<g mask="url(#mask0)">
<rect x="8" y="12" width="18.3912" height="18.3912" fill="white"/>
</g>
<path d="M23.6413 18.7467C23.7341 18.08 23.6571 17.4007 23.4175 16.7717C23.1779 16.1427 22.7834 15.5843 22.2707 15.1483C21.7579 14.7123 21.1434 14.4127 20.4841 14.2773C19.8247 14.1419 19.1419 14.1751 18.4988 14.3738" stroke="white" stroke-width="2" stroke-linecap="round"/>
<path d="M28.2072 18.664C28.4279 17.3303 28.3085 15.9624 27.86 14.6871C27.4116 13.4118 26.6485 12.2703 25.6416 11.3683C24.6347 10.4663 23.4164 9.83298 22.0996 9.52699C20.7829 9.22101 19.4102 9.25225 18.1087 9.61784" stroke="white" stroke-width="2" stroke-linecap="round"/>
</svg>

<svg width="38" height="38" viewBox="0 0 38 38" fill="none" xmlns="http://www.w3.org/2000/svg"><circle cx="19" cy="19" r="18" stroke="#fff" stroke-width="2"/><path fill-rule="evenodd" clip-rule="evenodd" d="M21.622 22.235a8.437 8.437 0 002.002.462c1.155.154 2.001 1.155 2.001 2.31v2.309c0 .616-.308 1.155-.693 1.616-.384.462-1 .693-1.616.693h-.231c-2.463-.23-4.927-1.078-7.005-2.463a16.186 16.186 0 01-4.85-4.85c-1.309-2.078-2.232-4.542-2.463-7.005 0-.616.154-1.232.538-1.694.385-.461.924-.77 1.54-.846h2.541c1.154 0 2.155.846 2.309 2.001.077.693.23 1.386.462 2.002.308.846.077 1.847-.54 2.463l-.538.539c.924 1.462 2.155 2.617 3.541 3.54l.539-.538c.693-.616 1.617-.847 2.463-.539zm2.464 5.082v-2.31c0-.385-.308-.693-.615-.77-.77-.154-1.54-.308-2.31-.615-.308-.154-.616-.078-.847.154l-1 1c-.231.308-.616.308-.924.154a12.632 12.632 0 01-4.927-4.927.818.818 0 01.154-.923l1-.924c.155-.231.232-.539.155-.847a7.88 7.88 0 01-.616-2.31c-.077-.384-.385-.692-.77-.692h-2.31c-.23 0-.461.154-.615.308-.077.154-.154.308-.154.539.23 2.232 1 4.388 2.232 6.312 1.155 1.77 2.618 3.31 4.388 4.388a14.48 14.48 0 006.313 2.232c.308 0 .462-.077.615-.23a.699.699 0 00.231-.54z" fill="#000"/><mask id="mask0" maskUnits="userSpaceOnUse" x="8" y="12" width="18" height="18"><path fill-rule="evenodd" clip-rule="evenodd" d="M21.622 22.235a8.437 8.437 0 002.002.462c1.155.154 2.001 1.155 2.001 2.31v2.309c0 .616-.308 1.155-.693 1.616-.384.462-1 .693-1.616.693h-.231c-2.463-.23-4.927-1.078-7.005-2.463a16.186 16.186 0 01-4.85-4.85c-1.309-2.078-2.232-4.542-2.463-7.005 0-.616.154-1.232.538-1.694.385-.461.924-.77 1.54-.846h2.541c1.154 0 2.155.846 2.309 2.001.077.693.23 1.386.462 2.002.308.846.077 1.847-.54 2.463l-.538.539c.924 1.462 2.155 2.617 3.541 3.54l.539-.538c.693-.616 1.617-.847 2.463-.539zm2.464 5.082v-2.31c0-.385-.308-.693-.615-.77-.77-.154-1.54-.308-2.31-.615-.308-.154-.616-.078-.847.154l-1 1c-.231.308-.616.308-.924.154a12.632 12.632 0 01-4.927-4.927.818.818 0 01.154-.923l1-.924c.155-.231.232-.539.155-.847a7.88 7.88 0 01-.616-2.31c-.077-.384-.385-.692-.77-.692h-2.31c-.23 0-.461.154-.615.308-.077.154-.154.308-.154.539.23 2.232 1 4.388 2.232 6.312 1.155 1.77 2.618 3.31 4.388 4.388a14.48 14.48 0 006.313 2.232c.308 0 .462-.077.615-.23a.699.699 0 00.231-.54z" fill="#fff"/></mask><g mask="url(#mask0)"><path fill="#fff" d="M8 12h18.391v18.391H8z"/></g><path d="M23.641 18.747a4 4 0 00-5.142-4.373m9.708 4.29A8.034 8.034 0 0018.11 9.618" stroke="#fff" stroke-width="2" stroke-linecap="round"/></svg>
